icons/popos-filled.svg

<svg width="256" height="256" viewBox="0 0 256 256" fill="none" xmlns="http://www.w3.org/2000/svg">
<path d="M196 0H60C26.8629 0 0 26.8629 0 60V196C0 229.137 26.8629 256 60 256H196C229.137 256 256 229.137 256 196V60C256 26.8629 229.137 0 196 0Z" fill="#48B9C7"/>
<path d="M69.0958 203.918H190.54C196.356 203.918 201.088 208.65 201.088 214.466V215.321C201.088 221.137 196.356 225.869 190.54 225.869H69.0958C63.2802 225.869 58.5479 221.137 58.5479 215.321V214.466C58.5479 208.622 63.2517 203.918 69.0958 203.918Z" fill="white"/>
<path d="M147.778 98.7239C140.936 113.263 129.533 124.951 113.568 130.653L127.252 166.288C129.818 172.845 132.099 179.687 130.103 185.958C128.107 192.23 118.985 194.226 112.428 187.384C99.8846 173.985 57.6927 89.6013 54.5568 83.3295C51.421 77.0578 48 71.9263 48 65.6546C48.2851 56.2469 62.8242 46.5542 69.9512 41.7079C77.0782 36.8615 91.0471 30.3047 103.306 30.0196C115.564 29.7345 120.695 32.5853 127.822 37.1466C138.655 44.2736 146.353 55.3917 149.203 68.2203C152.054 81.0489 151.199 91.0267 147.778 98.1537M115.564 82.7594C112.998 73.9219 107.582 65.3695 100.455 59.6679C99.0293 58.5276 97.3189 57.1022 95.3233 56.532C82.2096 52.2558 87.9112 74.207 89.9068 79.9086C91.9023 85.6102 97.3189 97.5835 103.306 103.57C104.731 104.996 106.156 106.136 107.867 106.421C109.577 106.706 112.998 104.996 114.424 102.715C115.849 100.434 116.134 98.7239 116.134 96.4432C116.79 91.8819 116.59 87.2351 115.564 82.7594Z" fill="white"/>
<path d="M173.15 186.244C172.58 188.81 171.155 191.09 168.874 192.516C166.593 193.941 161.177 193.941 158.041 191.376C154.905 188.81 154.335 184.534 155.19 181.113C156.045 177.692 158.896 173.986 162.887 172.845C171.155 170.28 174.861 179.402 173.15 186.244Z" fill="white"/>
<path d="M168.019 160.301C162.887 158.306 164.598 130.938 169.444 97.5837C170.869 88.4611 173.15 83.8998 175.716 81.6192C178.281 79.3386 185.979 78.1982 190.54 79.0535C195.785 79.8232 200.66 82.2179 204.509 85.8954C207.93 89.0313 208.215 92.4523 207.075 96.7285C205.934 101.005 201.943 110.127 198.807 116.684L190.825 131.793C175.431 159.161 172.295 162.012 168.019 160.301Z" fill="white"/>
</svg>

<svg xmlns="http://www.w3.org/2000/svg" width="256" height="256" fill="none"><path fill="#48B9C7" d="M196 0H60C26.863 0 0 26.863 0 60v136c0 33.137 26.863 60 60 60h136c33.137 0 60-26.863 60-60V60c0-33.137-26.863-60-60-60"/><path fill="#fff" d="M69.096 203.918H190.54c5.816 0 10.548 4.732 10.548 10.548v.855c0 5.816-4.732 10.548-10.548 10.548H69.096c-5.816 0-10.548-4.732-10.548-10.548v-.855a10.524 10.524 0 0 1 10.548-10.548m78.682-105.194c-6.842 14.539-18.245 26.227-34.21 31.929l13.684 35.635c2.566 6.557 4.847 13.399 2.851 19.67s-11.118 8.268-17.675 1.426C99.885 173.985 57.693 89.601 54.557 83.33S48 71.926 48 65.655c.285-9.408 14.824-19.1 21.951-23.947s21.096-11.403 33.355-11.688 17.389 2.565 24.516 7.127c10.833 7.127 18.531 18.245 21.381 31.073 2.851 12.829 1.996 22.807-1.425 29.934m-32.214-15.395c-2.566-8.837-7.982-17.39-15.109-23.091-1.426-1.14-3.136-2.566-5.132-3.136-13.113-4.276-7.412 17.675-5.416 23.377s7.412 17.674 13.399 23.661c1.425 1.426 2.85 2.566 4.561 2.851s5.131-1.425 6.557-3.706c1.425-2.281 1.71-3.991 1.71-6.272a37.4 37.4 0 0 0-.57-13.684m57.586 103.485c-.57 2.566-1.995 4.846-4.276 6.272-2.281 1.425-7.697 1.425-10.833-1.14s-3.706-6.842-2.851-10.263 3.706-7.127 7.697-8.268c8.268-2.565 11.974 6.557 10.263 13.399m-5.131-25.943c-5.132-1.995-3.421-29.363 1.425-62.717 1.425-9.123 3.706-13.684 6.272-15.965 2.565-2.28 10.263-3.42 14.824-2.565a25.6 25.6 0 0 1 13.969 6.841c3.421 3.136 3.706 6.557 2.566 10.834s-5.132 13.398-8.268 19.955l-7.982 15.109c-15.394 27.368-18.53 30.219-22.806 28.508"/></svg>
